build/assets/images/proyectos/logos/logo-oxford.svg

<svg width="200" height="200" viewBox="0 0 200 200" fill="none" xmlns="http://www.w3.org/2000/svg">
<rect width="200" height="200" fill="white"/>
<path fill-rule="evenodd" clip-rule="evenodd" d="M164.846 119.7C164.102 119.7 163.013 119.3 162.368 119V116.2H162.864C163.062 117.4 163.508 119 164.945 119C165.738 119 166.283 118.45 166.283 117.7C166.283 115.75 162.368 116.2 162.368 113.55C162.368 111.9 163.905 111.05 165.342 111.05C166.134 111.05 166.778 111.3 167.472 111.65L167.324 113.95H166.828C166.63 113 166.333 111.75 165.143 111.75C164.499 111.75 163.954 112.3 163.954 112.95C163.954 114.9 167.918 114.5 167.918 117.2C167.918 118.95 166.382 119.7 164.846 119.7ZM157.412 119.7C156.718 119.7 155.578 119.3 154.934 119V116.2H155.43C155.628 117.4 156.124 119 157.561 119C158.305 119 158.85 118.45 158.85 117.7C158.85 115.75 154.984 116.2 154.984 113.55C154.984 111.9 156.521 111.05 157.958 111.05C158.701 111.05 159.394 111.3 160.039 111.65L159.94 113.95H159.444C159.197 113 158.899 111.75 157.71 111.75C157.066 111.75 156.57 112.3 156.57 112.95C156.57 114.9 160.534 114.5 160.534 117.2C160.534 118.95 158.949 119.7 157.412 119.7ZM155.43 81.8496C154.984 81.8496 154.439 81.9 153.943 82.0496V97.5C153.943 100.15 154.984 100.8 157.61 100.8C162.962 100.8 165.838 96.7504 165.838 91.6504C165.838 85.3496 161.377 81.8504 155.43 81.8504V81.8496ZM152.754 118.5C152.705 118.85 152.556 119.15 152.457 119.5H145.568V118.95C146.906 118.75 147.104 118.7 147.154 117.3C147.204 116.8 147.204 116.3 147.204 115.85V114.75C147.204 114.3 147.204 113.85 147.154 113.4C147.104 112.1 146.857 111.9 145.568 111.8V111.25H152.556L152.506 113.7H151.961C151.912 113.25 151.862 112.7 151.515 112.4C151.019 111.95 149.682 111.95 149.038 111.95H148.839L148.79 114.75C149.136 114.75 150.524 114.8 150.772 114.6C150.92 114.5 151.069 113.8 151.118 113.65H151.614V117.05H151.069C150.97 116.05 150.97 115.75 149.93 115.75H148.79V117.2C148.839 118.35 148.79 118.8 150.127 118.8C151.664 118.8 152.308 117.6 152.705 116.3L153.2 116.4C153.051 117.1 152.952 117.85 152.754 118.5ZM144.874 119.55C144.181 119.55 143.536 119.55 142.892 119.4C141.058 119 140.018 116.65 139.175 115.15C140.117 114.9 140.86 114.7 140.86 113.5C140.86 112.3 139.77 111.9 138.778 111.8V115.9C138.778 117.85 138.382 118.75 140.612 118.95V119.5H135.607V118.95C137.441 118.7 137.193 118 137.193 116.3V115.2C137.193 114.6 137.143 114.05 137.143 113.45C137.143 112.05 136.846 111.95 135.558 111.75V111.25C136.747 111.25 137.936 111.2 139.126 111.2C140.563 111.2 142.743 111.5 142.743 113.4C142.743 114.45 142 115 141.158 115.35C141.851 116.8 143.338 118.75 144.974 119.05V119.55H144.874ZM130.651 116.25V115.7C131.89 115.5 132.534 115.35 132.534 113.85C132.534 112.4 131.147 111.9 129.908 111.85V115.5C129.908 116.05 129.958 116.6 129.958 117.15C130.007 118.7 130.205 118.85 131.791 118.95V119.5H126.686V118.95C127.034 118.9 127.826 118.8 128.074 118.5C128.372 118.1 128.322 116.25 128.322 115.7C128.322 114.9 128.47 112.6 127.926 112.15C127.629 111.95 127.083 111.85 126.686 111.8V111.3C127.876 111.25 129.066 111.2 130.205 111.2C131.692 111.2 134.368 111.65 134.368 113.6C134.368 115.8 132.386 116.15 130.651 116.25ZM167.026 98.1504C164.797 100.45 161.526 101.8 158.305 101.8L147.104 101.85H146.857C146.609 101.9 146.213 101.85 145.965 101.85C143.288 101.8 142.248 101.65 139.919 100.199C135.954 97.7 134.17 94.9 131.346 91.1504C133.625 91.1504 136.896 89 136.896 86.5C136.896 83.1 133.526 81.8496 130.702 81.8496H130.651C130.602 87.0496 130.503 92.2 130.503 97.4C130.503 100.6 131.543 100.5 134.566 100.9V101.85H126.836C126.885 96.4 127.034 91 127.034 85.6C127.034 84.8 127.034 82.7504 126.339 82.1496C125.894 81.7496 124.902 81.8 124.308 81.8V80.9C126.984 80.8496 129.611 80.7496 132.238 80.7496C135.558 80.7496 140.86 81.3496 140.86 85.8C140.86 88.7504 138.382 90.7 135.756 91.4496C137.639 93.7 143.586 100.9 146.758 100.9C149.781 100.9 150.623 99.6 150.623 96.6496V86.0496C150.623 82.8496 150.078 82.1496 146.857 81.6496V80.8496C149.731 80.8 152.605 80.7496 155.479 80.7496C162.666 80.7496 170 82.7 170 91.3C170 93.9 168.861 96.3 167.026 98.1504ZM119.65 112.15C119.104 112.55 117.222 115.7 117.222 116.25C117.222 118.1 116.974 118.75 119.006 118.95V119.5H113.851V118.95C115.834 118.75 115.586 118.15 115.586 116.35C115.19 115.6 113.455 112.5 112.711 112.1C112.414 111.9 111.968 111.8 111.671 111.8V111.25H115.982V111.75C115.685 111.85 115.041 111.9 115.041 112.3C115.041 112.75 116.429 114.7 116.775 115.25C117.023 114.75 118.014 112.9 118.014 112.3C118.014 111.9 117.518 111.8 117.222 111.75V111.25H120.74V111.75C120.343 111.85 119.947 111.9 119.65 112.15V112.15ZM110.581 114.05H110.482C110.085 112.05 109.688 112.2 107.806 112.15V116.25C107.806 118.15 107.558 118.7 109.54 118.95V119.5H104.485V118.95C105.823 118.75 106.121 118.7 106.17 117.3C106.219 116.65 106.219 116.05 106.219 115.4C106.219 114.3 106.219 113.25 106.17 112.15C104.238 112.15 103.89 112 103.543 114.1L102.998 114.05C103.098 113.1 103.146 112.15 103.197 111.25C104.038 111.3 104.882 111.4 105.773 111.4C106.616 111.4 107.409 111.35 108.251 111.35C109.144 111.35 110.035 111.35 110.878 111.25C110.878 111.4 110.829 111.55 110.829 111.7C110.829 112.5 110.927 113.3 110.977 114.05H110.581V114.05ZM116.429 84.8496C114.991 82.6 112.91 81.1 110.184 81.1C104.634 81.1 102.85 86.2 102.85 90.9496C102.85 93.2496 103.246 95.8504 104.485 97.8C105.922 100 108.102 101.5 110.778 101.5C116.478 101.5 118.014 96.4 118.014 91.5496C118.014 89.3 117.618 86.7496 116.429 84.8496ZM110.382 102.6C103.692 102.6 98.6864 98.1504 98.6864 91.2496C98.6864 84.3504 103.79 80 110.432 80C117.271 80 122.177 84.4 122.177 91.4496C122.177 98.2496 116.924 102.6 110.382 102.6ZM96.9024 119.5V118.95C98.2408 118.75 98.4888 118.7 98.5384 117.3V115.45C98.5384 114.75 98.6864 112.55 98.1912 112.15C97.9432 111.95 97.2496 111.8 96.9032 111.75V111.25H101.809V111.75C99.9752 112.05 100.124 112.65 100.124 114.4V116.05C100.124 116.4 100.174 116.75 100.174 117.15C100.223 118.6 100.372 118.8 101.809 118.95V119.5H96.9024ZM92.3432 119.7C91.6496 119.7 90.5096 119.3 89.8656 119V116.2H90.3616C90.5592 117.4 91.0552 119 92.492 119C93.236 119 93.78 118.45 93.78 117.7C93.78 115.75 89.9152 116.2 89.9152 113.55C89.9152 111.9 91.4512 111.05 92.888 111.05C93.632 111.05 94.3256 111.3 94.9704 111.65L94.8712 113.95H94.3752C94.1272 113 93.8304 111.75 92.6408 111.75C91.9968 111.75 91.5008 112.3 91.5008 112.95C91.5008 114.9 95.4656 114.5 95.4656 117.2C95.4656 118.95 93.8792 119.7 92.3432 119.7ZM88.7256 119.55C88.0816 119.55 87.4376 119.55 86.7928 119.4C84.9592 119 83.8688 116.65 83.0264 115.15C83.968 114.9 84.7608 114.7 84.7608 113.5C84.7608 112.3 83.6216 111.9 82.6304 111.8V115.9C82.6304 117.85 82.2336 118.75 84.464 118.95V119.5H79.4584V118.95C81.3416 118.7 81.044 118 81.044 116.3V113.45C80.9944 112.05 80.7472 111.95 79.4088 111.75V111.25C80.5984 111.25 81.788 111.2 82.9768 111.2C84.4144 111.2 86.5944 111.5 86.5944 113.4C86.5944 114.45 85.9008 115 85.0088 115.35C85.7528 116.8 87.2392 118.75 88.8744 119.05V119.55H88.7256ZM77.3272 119.5H70.4392V118.95C71.8264 118.75 72.0248 118.7 72.0744 117.3V113.4C72.0248 112.1 71.7272 111.9 70.4392 111.8V111.25H77.476L77.3768 113.7H76.8808C76.7824 113.25 76.7824 112.7 76.3856 112.4C75.8904 111.95 74.6016 111.95 73.908 111.95H73.7104L73.66 114.75C74.0072 114.75 75.3944 114.8 75.692 114.6C75.8408 114.5 75.9896 113.8 76.0392 113.65H76.5352V113.8C76.5352 114.85 76.4848 115.95 76.4848 117.05H75.9888C75.8904 116.05 75.8408 115.75 74.8 115.75H73.66L73.7104 117.2C73.7104 118.35 73.7104 118.8 75.048 118.8C76.5344 118.8 77.1792 117.6 77.576 116.3L78.0712 116.4C77.9224 117.5 77.6744 118.45 77.3272 119.5ZM68.7048 112.2C68.0112 112.85 65.4832 118.85 64.9872 120H64.7392L61.7168 113.05C61.3208 112.15 61.0232 111.9 60.032 111.75V111.25H64.64V111.75C64.3424 111.8 63.4008 111.95 63.4008 112.4C63.4008 113.05 65.0368 116.6 65.3832 117.25C65.6312 116.6 67.2168 113.15 67.2168 112.45C67.2168 112 66.1768 111.85 65.8296 111.75V111.25H69.744V111.75C69.3976 111.85 68.952 111.95 68.704 112.2H68.7048ZM54.6304 119.5V118.95C55.968 118.75 56.1664 118.7 56.216 117.3C56.2656 116.7 56.2656 116.05 56.2656 115.45C56.2656 114.75 56.3648 112.55 55.8696 112.15C55.6216 111.95 54.9272 111.8 54.6296 111.75V111.25H59.536V111.75C57.6528 112.05 57.8512 112.65 57.8512 114.4V116.05C57.8512 116.4 57.8512 116.75 57.9008 117.15C57.9504 118.6 58.0992 118.8 59.536 118.95V119.5H54.6304ZM96.0104 85.4496C95.5648 81.8 92.244 81.9504 89.4192 81.9504H87.536V90.0496H89.7168C91.0048 90.0496 92.2936 90.0496 93.5328 89.8496V95.0496H92.7888C92.5912 91.1 90.8568 91.7496 87.536 91.7496V96.9C87.536 100.6 87.9824 100.4 91.5008 101.05V101.85H70.8848L65.2848 93C64.3928 94.1 61.4688 98.1 61.4688 99.3504C61.4688 100.45 63.0048 100.8 63.7984 101.1L63.7488 101.85H54.5312V100.9C58.2976 100.7 59.3872 99.2 61.3696 96.2496L64.4424 91.8496L61.1224 86.3C59.6352 83.8496 57.752 81.7504 54.7296 81.7V80.7496H61.7168L66.8712 88.8C67.6144 87.6496 69.9928 84.2 69.9928 82.9504C69.9928 81.8496 68.556 81.8 67.7632 81.6504V80.7496H76.6336V81.6504C73.0656 81.9 71.7272 83.4504 69.8448 86.3C69.1008 87.5 68.3576 88.6496 67.5648 89.8496L71.9248 96.7C73.2632 98.8 74.8992 100.9 77.6248 100.9C80.7472 100.9 84.0176 100.7 84.0176 96.8V85.4C84.0176 82.3496 83.3736 81.9504 80.3504 81.5V80.7H96.556L96.9024 85.4496H96.0104ZM52.2024 112.2C51.7064 112.7 51.8552 118.85 51.8552 119.5H51.3096C49.5752 117.5 47.6424 115.7 45.8584 113.75V117.05C45.908 118.75 46.404 118.85 47.94 118.95V119.5H43.3312V118.95C44.5696 118.8 44.8672 118.5 44.9168 117.3C44.9664 116.35 45.016 115.4 45.016 114.45V113.3C45.016 113.15 44.9664 112.95 44.9664 112.8C44.372 112.1 44.0248 111.95 43.1328 111.75V111.25H46.0072C46.6512 112.45 49.8728 115.55 51.0128 116.8C51.0128 116.25 51.0624 115.75 51.0624 115.2C51.0624 114.65 51.0128 114.1 50.9624 113.55C50.9136 112 50.368 111.85 48.9304 111.8V111.25C50.4004 111.3 51.8716 111.3 53.3416 111.25V111.75C52.9952 111.8 52.4992 111.9 52.2016 112.2H52.2024ZM47.7408 84.8496C46.304 82.6 44.2224 81.1 41.5464 81.1C35.9464 81.1 34.1624 86.1496 34.1624 90.9496C34.1624 93.2496 34.5584 95.8504 35.8472 97.8C37.284 99.9496 39.4648 101.45 42.0912 101.45C47.84 101.45 49.3264 96.3504 49.3264 91.5504C49.3264 89.3 48.9304 86.7504 47.7408 84.8496ZM37.088 119.75C34.9568 119.75 33.52 119.35 33.2224 117.05C33.1232 116 33.0736 114.9 32.9248 113.85C32.8256 113.1 32.6768 112 31.7352 111.9H31.1408V111.25C32.2808 111.25 33.4696 111.25 34.6096 111.2C34.6592 113.15 34.7584 115.15 35.0064 117.1C35.1056 118.3 36.0464 118.85 37.1376 118.85C38.0792 118.85 38.9704 118.5 39.2184 117.5C39.516 116.25 39.7144 114.65 39.7144 113.4C39.7144 112.35 39.1192 111.8 38.128 111.8V111.25H42.5392V111.8C38.5248 111.8 42.5888 119.75 37.088 119.75ZM41.744 102.6C35.0064 102.6 30 98.1504 30 91.2C30 84.3 35.104 80 41.7448 80C48.5848 80 53.4904 84.3496 53.4904 91.4C53.4904 98.2496 48.2864 102.6 41.7456 102.6H41.744Z" fill="black"/>
</svg>

<svg width="200" height="200" fill="none" xmlns="http://www.w3.org/2000/svg"><path fill="#fff" d="M0 0h200v200H0z"/><path fill-rule="evenodd" clip-rule="evenodd" d="M164.846 119.7c-.744 0-1.833-.4-2.478-.7v-2.8h.496c.198 1.2.644 2.8 2.081 2.8.793 0 1.338-.55 1.338-1.3 0-1.95-3.915-1.5-3.915-4.15 0-1.65 1.537-2.5 2.974-2.5.792 0 1.436.25 2.13.6l-.148 2.3h-.496c-.198-.95-.495-2.2-1.685-2.2-.644 0-1.189.55-1.189 1.2 0 1.95 3.964 1.55 3.964 4.25 0 1.75-1.536 2.5-3.072 2.5zm-7.434 0c-.694 0-1.834-.4-2.478-.7v-2.8h.496c.198 1.2.694 2.8 2.131 2.8.744 0 1.289-.55 1.289-1.3 0-1.95-3.866-1.5-3.866-4.15 0-1.65 1.537-2.5 2.974-2.5.743 0 1.436.25 2.081.6l-.099 2.3h-.496c-.247-.95-.545-2.2-1.734-2.2-.644 0-1.14.55-1.14 1.2 0 1.95 3.964 1.55 3.964 4.25 0 1.75-1.585 2.5-3.122 2.5zm-1.982-37.85c-.446 0-.991.05-1.487.2V97.5c0 2.65 1.041 3.3 3.667 3.3 5.352 0 8.228-4.05 8.228-9.15 0-6.3-4.461-9.8-10.408-9.8zm-2.676 36.65c-.049.35-.198.65-.297 1h-6.889v-.55c1.338-.2 1.536-.25 1.586-1.65.05-.5.05-1 .05-1.45v-1.1c0-.45 0-.9-.05-1.35-.05-1.3-.297-1.5-1.586-1.6v-.55h6.988l-.05 2.45h-.545c-.049-.45-.099-1-.446-1.3-.496-.45-1.833-.45-2.477-.45h-.199l-.049 2.8c.346 0 1.734.05 1.982-.15.148-.1.297-.8.346-.95h.496v3.4h-.545c-.099-1-.099-1.3-1.139-1.3h-1.14v1.45c.049 1.15 0 1.6 1.337 1.6 1.537 0 2.181-1.2 2.578-2.5l.495.1c-.149.7-.248 1.45-.446 2.1zm-7.88 1.05c-.693 0-1.338 0-1.982-.15-1.834-.4-2.874-2.75-3.717-4.25.942-.25 1.685-.45 1.685-1.65s-1.09-1.6-2.082-1.7v4.1c0 1.95-.396 2.85 1.834 3.05v.55h-5.005v-.55c1.834-.25 1.586-.95 1.586-2.65v-1.1c0-.6-.05-1.15-.05-1.75 0-1.4-.297-1.5-1.585-1.7v-.5c1.189 0 2.378-.05 3.568-.05 1.437 0 3.617.3 3.617 2.2 0 1.05-.743 1.6-1.585 1.95.693 1.45 2.18 3.4 3.816 3.7v.5h-.1zm-14.223-3.3v-.55c1.239-.2 1.883-.35 1.883-1.85 0-1.45-1.387-1.95-2.626-2v3.65c0 .55.05 1.1.05 1.65.049 1.55.247 1.7 1.833 1.8v.55h-5.105v-.55c.348-.05 1.14-.15 1.388-.45.298-.4.248-2.25.248-2.8 0-.8.148-3.1-.396-3.55-.297-.2-.843-.3-1.24-.35v-.5c1.19-.05 2.38-.1 3.519-.1 1.487 0 4.163.45 4.163 2.4 0 2.2-1.982 2.55-3.717 2.65zm36.375-18.1c-2.229 2.3-5.5 3.65-8.721 3.65l-11.201.05h-.247c-.248.05-.644 0-.892 0-2.677-.05-3.717-.2-6.046-1.651-3.965-2.499-5.749-5.299-8.573-9.049 2.279 0 5.55-2.15 5.55-4.65 0-3.4-3.37-4.65-6.194-4.65h-.051c-.049 5.2-.148 10.35-.148 15.55 0 3.2 1.04 3.1 4.063 3.5v.95h-7.73c.049-5.45.198-10.85.198-16.25 0-.8 0-2.85-.695-3.45-.445-.4-1.437-.35-2.031-.35v-.9c2.676-.05 5.303-.15 7.93-.15 3.32 0 8.622.6 8.622 5.05 0 2.95-2.478 4.9-5.104 5.65 1.883 2.25 7.83 9.45 11.002 9.45 3.023 0 3.865-1.3 3.865-4.25v-10.6c0-3.2-.545-3.9-3.766-4.4v-.8c2.874-.05 5.748-.1 8.622-.1C162.666 80.75 170 82.7 170 91.3c0 2.6-1.139 5-2.974 6.85zm-47.376 14c-.546.4-2.428 3.55-2.428 4.1 0 1.85-.248 2.5 1.784 2.7v.55h-5.155v-.55c1.983-.2 1.735-.8 1.735-2.6-.396-.75-2.131-3.85-2.875-4.25-.297-.2-.743-.3-1.04-.3v-.55h4.311v.5c-.297.1-.941.15-.941.55 0 .45 1.388 2.4 1.734 2.95.248-.5 1.239-2.35 1.239-2.95 0-.4-.496-.5-.792-.55v-.5h3.518v.5c-.397.1-.793.15-1.09.4zm-9.069 1.9h-.099c-.397-2-.794-1.85-2.676-1.9v4.1c0 1.9-.248 2.45 1.734 2.7v.55h-5.055v-.55c1.338-.2 1.636-.25 1.685-1.65.049-.65.049-1.25.049-1.9 0-1.1 0-2.15-.049-3.25-1.932 0-2.28-.15-2.627 1.95l-.545-.05c.1-.95.148-1.9.199-2.8.841.05 1.685.15 2.576.15.843 0 1.636-.05 2.478-.05.893 0 1.784 0 2.627-.1 0 .15-.049.3-.049.45 0 .8.098 1.6.148 2.35h-.396zm5.848-29.2c-1.438-2.25-3.519-3.75-6.245-3.75-5.55 0-7.334 5.1-7.334 9.85 0 2.3.396 4.9 1.635 6.85 1.437 2.2 3.617 3.7 6.293 3.7 5.7 0 7.236-5.1 7.236-9.95 0-2.25-.396-4.8-1.585-6.7zm-6.047 17.75c-6.69 0-11.696-4.45-11.696-11.35 0-6.9 5.104-11.25 11.746-11.25 6.839 0 11.745 4.4 11.745 11.45 0 6.8-5.253 11.15-11.795 11.15zm-13.48 16.9v-.55c1.339-.2 1.587-.25 1.636-1.65v-1.85c0-.7.148-2.9-.347-3.3-.248-.2-.941-.35-1.288-.4v-.5h4.906v.5c-1.834.3-1.685.9-1.685 2.65v1.65c0 .35.05.7.05 1.1.049 1.45.198 1.65 1.635 1.8v.55h-4.907zm-4.559.2c-.693 0-1.833-.4-2.477-.7v-2.8h.496c.197 1.2.693 2.8 2.13 2.8.744 0 1.288-.55 1.288-1.3 0-1.95-3.865-1.5-3.865-4.15 0-1.65 1.536-2.5 2.973-2.5.744 0 1.438.25 2.082.6l-.099 2.3h-.496c-.248-.95-.545-2.2-1.734-2.2-.644 0-1.14.55-1.14 1.2 0 1.95 3.965 1.55 3.965 4.25 0 1.75-1.587 2.5-3.123 2.5zm-3.617-.15c-.644 0-1.288 0-1.933-.15-1.834-.4-2.924-2.75-3.767-4.25.942-.25 1.735-.45 1.735-1.65s-1.14-1.6-2.13-1.7v4.1c0 1.95-.397 2.85 1.833 3.05v.55h-5.006v-.55c1.884-.25 1.586-.95 1.586-2.65v-2.85c-.05-1.4-.297-1.5-1.635-1.7v-.5c1.19 0 2.379-.05 3.568-.05 1.437 0 3.617.3 3.617 2.2 0 1.05-.693 1.6-1.585 1.95.744 1.45 2.23 3.4 3.865 3.7v.5h-.148zm-11.399-.05H70.44v-.55c1.387-.2 1.586-.25 1.635-1.65v-3.9c-.05-1.3-.347-1.5-1.635-1.6v-.55h7.037l-.1 2.45h-.495c-.099-.45-.099-1-.495-1.3-.496-.45-1.784-.45-2.478-.45h-.198l-.05 2.8c.347 0 1.734.05 2.032-.15.149-.1.298-.8.347-.95h.496v.15c0 1.05-.05 2.15-.05 3.25h-.496c-.099-1-.148-1.3-1.189-1.3h-1.14l.05 1.45c0 1.15 0 1.6 1.338 1.6 1.486 0 2.131-1.2 2.528-2.5l.495.1c-.149 1.1-.397 2.05-.744 3.1zm-8.622-7.3c-.694.65-3.222 6.65-3.718 7.8h-.248l-3.022-6.95c-.396-.9-.694-1.15-1.685-1.3v-.5h4.608v.5c-.298.05-1.24.2-1.24.65 0 .65 1.637 4.2 1.983 4.85.248-.65 1.834-4.1 1.834-4.8 0-.45-1.04-.6-1.387-.7v-.5h3.914v.5c-.346.1-.792.2-1.04.45zm-14.075 7.3v-.55c1.338-.2 1.536-.25 1.586-1.65.05-.6.05-1.25.05-1.85 0-.7.099-2.9-.396-3.3-.248-.2-.943-.35-1.24-.4v-.5h4.906v.5c-1.883.3-1.685.9-1.685 2.65v1.65c0 .35 0 .7.05 1.1.05 1.45.198 1.65 1.635 1.8v.55H54.63zm41.38-34.05c-.445-3.65-3.766-3.5-6.59-3.5h-1.884v8.1h2.18c1.289 0 2.578 0 3.817-.2v5.2h-.744c-.198-3.95-1.932-3.3-5.253-3.3v5.15c0 3.7.446 3.5 3.965 4.15v.8H70.885l-5.6-8.85c-.892 1.1-3.816 5.1-3.816 6.35 0 1.1 1.536 1.45 2.33 1.75l-.05.75H54.53v-.95c3.767-.2 4.856-1.7 6.839-4.65l3.072-4.4-3.32-5.55c-1.487-2.45-3.37-4.55-6.392-4.6v-.95h6.987l5.154 8.05c.743-1.15 3.122-4.6 3.122-5.85 0-1.1-1.437-1.15-2.23-1.3v-.9h8.87v.9c-3.567.25-4.906 1.8-6.788 4.65-.744 1.2-1.487 2.35-2.28 3.55l4.36 6.85c1.338 2.1 2.974 4.2 5.7 4.2 3.122 0 6.393-.2 6.393-4.1V85.4c0-3.05-.644-3.45-3.668-3.9v-.8h16.206l.346 4.75h-.892zM52.202 112.2c-.496.5-.347 6.65-.347 7.3h-.545c-1.735-2-3.668-3.8-5.452-5.75v3.3c.05 1.7.546 1.8 2.082 1.9v.55h-4.609v-.55c1.239-.15 1.536-.45 1.586-1.65.05-.95.099-1.9.099-2.85v-1.15c0-.15-.05-.35-.05-.5-.594-.7-.941-.85-1.833-1.05v-.5h2.874c.644 1.2 3.866 4.3 5.006 5.55 0-.55.05-1.05.05-1.6s-.05-1.1-.1-1.65c-.05-1.55-.595-1.7-2.033-1.75v-.55c1.47.05 2.942.05 4.412 0v.5c-.347.05-.843.15-1.14.45zm-4.461-27.35c-1.437-2.25-3.519-3.75-6.195-3.75-5.6 0-7.384 5.05-7.384 9.85 0 2.3.396 4.9 1.685 6.85 1.437 2.15 3.618 3.65 6.244 3.65 5.749 0 7.235-5.1 7.235-9.9 0-2.25-.396-4.8-1.585-6.7zm-10.653 34.9c-2.131 0-3.568-.4-3.866-2.7-.099-1.05-.148-2.15-.297-3.2-.1-.75-.248-1.85-1.19-1.95h-.594v-.65c1.14 0 2.329 0 3.469-.05.05 1.95.148 3.95.396 5.9.1 1.2 1.04 1.75 2.132 1.75.941 0 1.832-.35 2.08-1.35.298-1.25.496-2.85.496-4.1 0-1.05-.595-1.6-1.586-1.6v-.55h4.411v.55c-4.014 0 .05 7.95-5.451 7.95zm4.656-17.15C35.006 102.6 30 98.15 30 91.2 30 84.3 35.104 80 41.745 80c6.84 0 11.745 4.35 11.745 11.4 0 6.85-5.204 11.2-11.744 11.2h-.002z" fill="#000"/></svg>
